X:86
T:Wood Picker,The. JGi.086
T:Woodpecker,The,aka. JGi.086
O:Tealby,Lincolnshire
M:C|
L:1/8
Q:1/4=130
S:Joshua Gibbons MS,1823,Tealby,Lincs.
R:Air
Z:VMP/R.Greig, 2009
K:D
A4|d2ddd2cd|e2eee3e|f2edd2cd|ecdBA2AA|
d2ddd2 (cd)|e2eee2A2|a2fdB2GG|A2Bc defg|
a2fdB2GG|A2Bcd2||AA|A2GFE2BB|B2AGF2ff|
f2fed2ff|fedc B2BB|d2dd B2BB|e2eec2cc|
f2fed2ef|g2ffe2dd|d2c^cBBzB|eed2c2AA|
a2fd BBzG|AABc defg|a2fd BBzG|AAc2d2:|

